; generated by PrusaSlicer 2.4.0+win64 on 2022-02-17 at 04:36:34 UTC

; 

; external perimeters extrusion width = 0.60mm
; perimeters extrusion width = 0.50mm
; infill extrusion width = 0.50mm
; solid infill extrusion width = 0.50mm
; top infill extrusion width = 0.45mm
; first layer extrusion width = 0.42mm

M73 P0 R112
M73 Q0 S113
M201 X1000 Y1000 Z200 E5000 ; sets maximum accelerations, mm/sec^2
M203 X200 Y200 Z12 E120 ; sets maximum feedrates, mm/sec
M204 P1250 R1250 T1250 ; sets acceleration (P, T) and retract acceleration (R), mm/sec^2
M205 X8.00 Y8.00 Z0.40 E4.50 ; sets the jerk limits, mm/sec
M205 S0 T0 ; sets the minimum extruding and travel feed rate, mm/sec
M107
;TYPE:Custom
M862.3 P "MK3S" ; printer model check
M862.1 P0.4 ; nozzle diameter check
M115 U3.10.0 ; tell printer latest fw version
G90 ; use absolute coordinates
M83 ; extruder relative mode
M104 S215 ; set extruder temp
M140 S70 ; set bed temp
M190 S70 ; wait for bed temp
M109 S215 ; wait for extruder temp
G28 W ; home all without mesh bed level
G80 ; mesh bed leveling
G1 Z0.2 F720
G1 Y-3 F1000 ; go outside print area
G92 E0
G1 X60 E9 F1000 ; intro line
G1 X100 E12.5 F1000 ; intro line
G92 E0
M221 S95

; Don't change E values below. Excessive value can damage the printer.

M907 E538 ; set extruder motor current
G21 ; set units to millimeters
G90 ; use absolute coordinates
M83 ; use relative distances for extrusion
M900 K0.05 ; Filament gcode LA 1.5
M900 K30 ; Filament gcode LA 1.0
M107
;LAYER_CHANGE
;Z:0.2
;HEIGHT:0.2
;BEFORE_LAYER_CHANGE
G92 E0.0
;0.2


G1 E-.8 F2100
G1 Z.4 F720
;AFTER_LAYER_CHANGE
;0.2
G1 X87.468 Y57.934 F10800
G1 Z.2 F720
G1 E.8 F2100
M204 S800
;TYPE:Skirt/Brim
;WIDTH:0.42
G1 F1800
G1 X88.04 Y57.276 E.02734
G1 X88.934 Y56.468 E.03776
G1 X90.493 Y55.886 E.05219
G1 X159.507 Y55.886 E2.16389
G1 X161.066 Y56.468 E.05219
G1 X161.724 Y57.04 E.02734
G1 X162.532 Y57.934 E.03775
G1 X163.059 Y58.982 E.03679
G1 X168.559 Y83.982 E.8026
G1 X168.614 Y84.493 E.01611
G1 X168.614 Y125.507 E1.28596
G1 X168.559 Y126.018 E.01611
G1 X163.059 Y151.018 E.8026
G1 X162.532 Y152.066 E.03679
G1 X161.96 Y152.724 E.02734
G1 X161.066 Y153.532 E.03775
G1 X159.507 Y154.114 E.05219
G1 X90.493 Y154.114 E2.16389
G1 X88.934 Y153.532 E.05219
G1 X88.04 Y152.724 E.03776
G1 X87.468 Y152.066 E.02734
G1 X86.941 Y151.018 E.03679
G1 X81.441 Y126.018 E.8026
G1 X81.386 Y125.507 E.01611
M73 P0 R111
G1 X81.386 Y84.493 E1.28596
G1 X81.441 Y83.982 E.01611
G1 X86.941 Y58.982 E.8026
G1 X87.442 Y57.988 E.03491
M204 S1000
;WIPE_START
G1 F8640
G1 X88.04 Y57.276 E-.2148
G1 X88.934 Y56.468 E-.27804
G1 X90.018 Y56.063 E-.26716
;WIPE_END
G1 E-.04 F2100
G1 Z.6 F720
G1 X89.855 Y59.367 F10800
G1 Z.2 F720
G1 E.8 F2100
M204 S800
G1 F1800
G1 X89.881 Y59.322 E.00161
G1 X90.327 Y58.882 E.01967
G1 X90.488 Y58.775 E.00606
G1 X91.147 Y58.566 E.02167
G1 X158.868 Y58.57 E2.12336
G1 X159.228 Y58.653 E.01157
G1 X159.593 Y58.825 E.01266
G1 X160.033 Y59.217 E.01848
G1 X160.268 Y59.582 E.01362
G1 X160.434 Y60.146 E.01841
G1 X160.434 Y83.567 E.73437
G1 X164.548 Y83.599 E.12898
G1 X164.933 Y83.737 E.01284
G1 X165.224 Y83.919 E.01076
G1 X165.62 Y84.33 E.01789
G1 X165.764 Y84.571 E.0088
G1 X165.934 Y85.146 E.0188
G1 X165.934 Y124.854 E1.24504
G1 X165.768 Y125.418 E.01844
G1 X165.522 Y125.794 E.01409
G1 X165.106 Y126.168 E.01753
G1 X164.944 Y126.259 E.00583
G1 X164.548 Y126.401 E.01319
G1 X160.434 Y126.433 E.12898
G1 X160.434 Y149.854 E.73437
G1 X160.269 Y150.417 E.01838
G1 X160.119 Y150.678 E.00942
G1 X159.673 Y151.118 E.01967
G1 X159.512 Y151.225 E.00606
G1 X158.853 Y151.434 E.02167
G1 X91.146 Y151.434 E2.12293
G1 X90.583 Y151.269 E.01838
G1 X90.322 Y151.119 E.00942
G1 X89.882 Y150.673 E.01967
G1 X89.775 Y150.512 E.00606
G1 X89.566 Y149.853 E.02167
G1 X89.566 Y126.433 E.73434
G1 X85.452 Y126.401 E.12898
G1 X85.067 Y126.263 E.01284
G1 X84.776 Y126.081 E.01076
G1 X84.38 Y125.67 E.01789
G1 X84.236 Y125.429 E.0088
G1 X84.066 Y124.854 E.0188
G1 X84.066 Y85.146 E1.24504
G1 X84.232 Y84.582 E.01844
G1 X84.478 Y84.206 E.01409
G1 X84.894 Y83.832 E.01753
G1 X85.056 Y83.741 E.00583
G1 X85.452 Y83.599 E.01319
G1 X89.566 Y83.567 E.12898
G1 X89.566 Y60.146 E.73437
G1 X89.731 Y59.583 E.01838
G1 X89.825 Y59.419 E.00593
M204 S1000
G1 X90.148 Y59.61 F10800
M204 S800
G1 F1800
G1 X90.191 Y59.538 E.00263
G1 X90.574 Y59.167 E.01672
G1 X90.67 Y59.105 E.00358
G1 X91.176 Y58.943 E.01667
G1 X158.846 Y58.947 E2.12175
G1 X159.085 Y59.002 E.00767
G1 X159.405 Y59.153 E.01111
G1 X159.76 Y59.478 E.01508
G1 X159.916 Y59.72 E.00902
G1 X160.057 Y60.175 E.01495
G1 X160.057 Y83.943 E.74522
G1 X164.451 Y83.965 E.13777
G1 X164.785 Y84.085 E.01113
G1 X165 Y84.223 E.00802
G1 X165.332 Y84.573 E.01513
G1 X165.411 Y84.705 E.00483
G1 X165.557 Y85.175 E.01543
G1 X165.557 Y124.825 E1.24318
G1 X165.416 Y125.28 E.01495
G1 X165.25 Y125.532 E.00946
G1 X164.899 Y125.853 E.01491
G1 X164.8 Y125.91 E.0036
G1 X164.451 Y126.035 E.01162
G1 X160.057 Y126.057 E.13777
G1 X160.057 Y149.825 E.74522
G1 X159.916 Y150.282 E.015
G1 X159.809 Y150.462 E.00656
G1 X159.426 Y150.833 E.01672
G1 X159.33 Y150.895 E.00358
G1 X158.824 Y151.057 E.01667
G1 X91.175 Y151.057 E2.12107
G1 X90.718 Y150.916 E.015
G1 X90.538 Y150.809 E.00656
G1 X90.167 Y150.426 E.01672
G1 X90.105 Y150.33 E.00358
G1 X89.943 Y149.824 E.01667
G1 X89.943 Y126.057 E.74519
G1 X85.549 Y126.035 E.13777
G1 X85.215 Y125.915 E.01113
G1 X85 Y125.777 E.00802
G1 X84.668 Y125.427 E.01513
G1 X84.589 Y125.295 E.00483
G1 X84.443 Y124.825 E.01543
G1 X84.443 Y85.175 E1.24318
G1 X84.584 Y84.72 E.01495
G1 X84.75 Y84.468 E.00946
G1 X85.101 Y84.147 E.01491
G1 X85.2 Y84.09 E.0036
G1 X85.549 Y83.965 E.01162
G1 X89.943 Y83.943 E.13777
G1 X89.943 Y60.175 E.74522
G1 X90.084 Y59.718 E.015
G1 X90.117 Y59.662 E.00205
M204 S1000
G1 X90.435 Y59.859 F10800
M204 S800
G1 F1800
G1 X90.496 Y59.76 E.00365
G1 X90.816 Y59.457 E.0138
G1 X91.207 Y59.32 E.01299
G1 X158.824 Y59.324 E2.12009
G1 X158.941 Y59.351 E.00377
G1 X159.215 Y59.481 E.0095
G1 X159.484 Y59.736 E.0116
G1 X159.567 Y59.863 E.00476
G1 X159.68 Y60.207 E.01136
G1 X159.68 Y84.32 E.75604
G1 X164.354 Y84.331 E.14656
G1 X164.634 Y84.432 E.00933
G1 X164.771 Y84.522 E.00514
G1 X165.061 Y84.846 E.01361
G1 X165.18 Y85.207 E.01193
G1 X165.18 Y124.793 E1.24119
G1 X165.067 Y125.137 E.01134
G1 X164.978 Y125.271 E.00506
G1 X164.685 Y125.542 E.01251
G1 X164.354 Y125.669 E.0111
G1 X159.68 Y125.68 E.14656
G1 X159.68 Y149.793 E.75604
G1 X159.566 Y150.14 E.01143
G1 X159.504 Y150.24 E.00372
G1 X159.184 Y150.543 E.0138
G1 X158.793 Y150.68 E.01299
G1 X91.207 Y150.68 E2.11911
G1 X90.86 Y150.566 E.01143
G1 X90.76 Y150.504 E.00372
G1 X90.457 Y150.184 E.0138
G1 X90.32 Y149.793 E.01299
G1 X90.32 Y125.68 E.75604
G1 X85.646 Y125.669 E.14656
G1 X85.366 Y125.568 E.00933
G1 X85.229 Y125.478 E.00514
G1 X84.939 Y125.154 E.01361
G1 X84.82 Y124.793 E.01193
G1 X84.82 Y85.207 E1.24119
G1 X84.933 Y84.863 E.01134
M73 Q0 S112
G1 X85.022 Y84.729 E.00506
G1 X85.315 Y84.458 E.01251
G1 X85.646 Y84.331 E.0111
G1 X90.32 Y84.32 E.14656
G1 X90.32 Y60.207 E.75604
G1 X90.416 Y59.915 E.00962
M204 S1000
G1 X90.769 Y60.042 F10800
M204 S800
G1 F1800
G1 X90.795 Y59.991 E.0018
G1 X91.029 Y59.774 E.01002
G1 X91.242 Y59.697 E.00709
G1 X158.772 Y59.697 E2.11736
G1 X159.022 Y59.807 E.00856
G1 X159.203 Y59.988 E.00802
G1 X159.303 Y60.242 E.00856
G1 X159.303 Y84.697 E.76678
G1 X164.258 Y84.697 E.15537
G1 X164.509 Y84.795 E.00845
G1 X164.726 Y85.029 E.01002
G1 X164.803 Y85.242 E.00709
G1 X164.803 Y124.758 E1.23899
G1 X164.705 Y125.009 E.00845
G1 X164.471 Y125.226 E.01002
G1 X164.258 Y125.303 E.00709
G1 X159.303 Y125.303 E.15537
G1 X159.303 Y149.758 E.76678
G1 X159.205 Y150.009 E.00845
G1 X158.971 Y150.226 E.01002
G1 X158.758 Y150.303 E.00709
G1 X91.242 Y150.303 E2.11691
G1 X90.991 Y150.205 E.00845
G1 X90.774 Y149.971 E.01002
G1 X90.697 Y149.758 E.00709
G1 X90.697 Y125.303 E.76678
G1 X85.742 Y125.303 E.15537
G1 X85.491 Y125.205 E.00845
G1 X85.274 Y124.971 E.01002
G1 X85.197 Y124.758 E.00709
G1 X85.197 Y85.242 E1.23899
G1 X85.295 Y84.991 E.00845
G1 X85.529 Y84.774 E.01002
G1 X85.742 Y84.697 E.00709
G1 X90.697 Y84.697 E.15537
G1 X90.697 Y60.242 E.76678
G1 X90.749 Y60.098 E.00478
M204 S1000
G1 X91.092 Y60.241 F10800
M204 S800
G1 F1800
G1 X91.215 Y60.103 E.00578
G1 X91.284 Y60.074 E.00235
G1 X158.716 Y60.074 E2.11429
G1 X158.785 Y60.103 E.00235
G1 X158.897 Y60.215 E.00495
G1 X158.926 Y60.284 E.00235
G1 X158.926 Y85.074 E.77728
G1 X164.216 Y85.074 E.16588
M73 P1 R111
G1 X164.285 Y85.103 E.00235
M73 Q1 S112
G1 X164.397 Y85.215 E.00495
G1 X164.426 Y85.284 E.00235
G1 X164.426 Y124.716 E1.23637
G1 X164.397 Y124.785 E.00235
G1 X164.285 Y124.897 E.00495
G1 X164.216 Y124.926 E.00235
G1 X158.926 Y124.926 E.16588
G1 X158.926 Y149.716 E.77729
G1 X158.897 Y149.785 E.00235
G1 X158.785 Y149.897 E.00495
G1 X158.716 Y149.926 E.00235
G1 X91.284 Y149.926 E2.11429
G1 X91.215 Y149.897 E.00235
G1 X91.103 Y149.785 E.00495
G1 X91.074 Y149.716 E.00235
G1 X91.074 Y124.926 E.77729
G1 X85.784 Y124.926 E.16588
G1 X85.715 Y124.897 E.00235
G1 X85.603 Y124.785 E.00495
G1 X85.574 Y124.716 E.00235
G1 X85.574 Y85.284 E1.23637
G1 X85.603 Y85.215 E.00235
G1 X85.715 Y85.103 E.00495
G1 X85.784 Y85.074 E.00235
G1 X91.074 Y85.074 E.16588
G1 X91.074 Y60.297 E.77687
M204 S1000
; printing object chassis.STL id:0 copy 0
;WIPE_START
G1 F8640
M73 P1 R110
G1 X91.215 Y60.103 E-.05531
G1 X91.284 Y60.074 E-.01732
G1 X94.261 Y60.074 E-.68737
;WIPE_END
G1 E-.04 F2100
G1 Z.6 F720
G1 X126.955 Y80.178 F10800
G1 Z.2 F720
G1 E.8 F2100
M204 S800
;TYPE:Perimeter
G1 F1800
G1 X138.822 Y80.178 E.3721
G1 X138.822 Y129.822 E1.55657
G1 X126.178 Y129.822 E.39647
G1 X126.178 Y80.178 E1.55657
G1 X126.895 Y80.178 E.02248
M204 S1000
G1 X126.555 Y80.555 F10800
M204 S800
;TYPE:External perimeter
G1 F1800
G1 X138.445 Y80.555 E.37282
G1 X138.445 Y129.445 E1.53293
G1 X126.555 Y129.445 E.37282
G1 X126.555 Y80.615 E1.53105
M204 S1000
G1 X126.523 Y80.156 F10800
;WIPE_START
G1 F8640
G1 X129.846 Y80.598 E-.76
;WIPE_END
G1 E-.04 F2100
G1 Z.6 F720
G1 X123.822 Y80.201 F10800
G1 Z.2 F720
G1 E.8 F2100
M204 S800
;TYPE:Perimeter
G1 F1800
G1 X123.822 Y129.822 E1.55586
G1 X111.178 Y129.822 E.39647
G1 X111.178 Y80.178 E1.55657
G1 X123.785 Y80.178 E.3953
M204 S1000
G1 X123.445 Y80.555 F10800
M204 S800
;TYPE:External perimeter
G1 F1800
G1 X123.445 Y129.445 E1.53293
G1 X111.555 Y129.445 E.37282
G1 X111.555 Y80.555 E1.53293
G1 X123.385 Y80.555 E.37094
M204 S1000
G1 X123.806 Y80.383 F10800
;WIPE_START
G1 F8640
G1 X123.389 Y83.846 E-.76
;WIPE_END
G1 E-.04 F2100
G1 Z.6 F720
G1 X158.827 Y85.95 F10800
G1 Z.2 F720
G1 E.8 F2100
M204 S800
;TYPE:Perimeter
G1 F1800
G1 X163.55 Y85.95 E.14808
G1 X163.55 Y124.05 E1.1946
G1 X158.05 Y124.05 E.17245
G1 X158.05 Y149.05 E.78386
G1 X91.95 Y149.05 E2.07252
G1 X91.95 Y124.05 E.78386
G1 X86.45 Y124.05 E.17245
G1 X86.45 Y85.95 E1.1946
G1 X91.95 Y85.95 E.17245
G1 X91.95 Y60.95 E.78386
G1 X158.05 Y60.95 E2.07252
G1 X158.05 Y85.95 E.78386
G1 X158.767 Y85.95 E.02248
M204 S1000
G1 X158.427 Y85.573 F10800
M204 S800
;TYPE:External perimeter
G1 F1800
G1 X163.927 Y85.573 E.17245
G1 X163.927 Y124.427 E1.21825
G1 X158.427 Y124.427 E.17245
G1 X158.427 Y149.427 E.78386
G1 X91.573 Y149.427 E2.09617
G1 X91.573 Y124.427 E.78386
G1 X86.073 Y124.427 E.17245
M73 Q1 S111
G1 X86.073 Y85.573 E1.21825
G1 X91.573 Y85.573 E.17245
G1 X91.573 Y60.573 E.78386
G1 X158.427 Y60.573 E2.09617
G1 X158.427 Y85.513 E.78198
M204 S1000
G1 X158.585 Y85.941 F10800
;WIPE_START
G1 F8640
G1 X161.718 Y85.549 E-.76
;WIPE_END
G1 E-.04 F2100
G1 Z.6 F720
G1 X157.937 Y61.827 F10800
G1 Z.2 F720
G1 E.8 F2100
M204 S800
;TYPE:Solid infill
;WIDTH:0.420591
G1 F1800
G1 X157.343 Y61.233 E.02637
G1 X156.809 Y61.233 E.01677
G1 X157.767 Y62.191 E.04256
G1 X157.767 Y62.725 E.01677
G1 X156.275 Y61.233 E.06628
G1 X155.741 Y61.233 E.01677
G1 X157.767 Y63.259 E.09
G1 X157.767 Y63.793 E.01677
G1 X155.207 Y61.233 E.11372
G1 X154.673 Y61.233 E.01677
G1 X157.767 Y64.327 E.13744
G1 X157.767 Y64.862 E.01677
G1 X154.138 Y61.233 E.16116
G1 X153.604 Y61.233 E.01677
G1 X157.767 Y65.396 E.18488
G1 X157.767 Y65.93 E.01677
G1 X153.07 Y61.233 E.2086
G1 X152.536 Y61.233 E.01677
G1 X157.767 Y66.464 E.23232
G1 X157.767 Y66.998 E.01677
G1 X152.002 Y61.233 E.25604
G1 X151.468 Y61.233 E.01677
G1 X157.767 Y67.532 E.27976
G1 X157.767 Y68.066 E.01677
G1 X150.934 Y61.233 E.30348
G1 X150.4 Y61.233 E.01677
G1 X157.767 Y68.6 E.3272
G1 X157.767 Y69.134 E.01677
G1 X149.866 Y61.233 E.35092
G1 X149.332 Y61.233 E.01677
G1 X157.767 Y69.669 E.37464
G1 X157.767 Y70.203 E.01677
G1 X148.797 Y61.233 E.39836
G1 X148.263 Y61.233 E.01677
G1 X157.767 Y70.737 E.42208
G1 X157.767 Y71.271 E.01677
G1 X147.729 Y61.233 E.4458
G1 X147.195 Y61.233 E.01677
G1 X157.767 Y71.805 E.46952
G1 X157.767 Y72.339 E.01677
G1 X146.661 Y61.233 E.49324
G1 X146.127 Y61.233 E.01677
G1 X157.767 Y72.873 E.51696
G1 X157.767 Y73.407 E.01677
G1 X145.593 Y61.233 E.54069
G1 X145.059 Y61.233 E.01677
G1 X157.767 Y73.941 E.56441
G1 X157.767 Y74.475 E.01677
G1 X144.525 Y61.233 E.58813
G1 X143.99 Y61.233 E.01677
G1 X157.767 Y75.01 E.61185
G1 X157.767 Y75.544 E.01677
G1 X143.456 Y61.233 E.63557
G1 X142.922 Y61.233 E.01677
G1 X157.767 Y76.078 E.65929
G1 X157.767 Y76.612 E.01677
G1 X142.388 Y61.233 E.68301
G1 X141.854 Y61.233 E.01677
G1 X157.767 Y77.146 E.70673
G1 X157.767 Y77.68 E.01677
G1 X141.32 Y61.233 E.73045
G1 X140.786 Y61.233 E.01677
G1 X157.767 Y78.214 E.75417
G1 X157.767 Y78.748 E.01677
G1 X140.252 Y61.233 E.77789
G1 X139.718 Y61.233 E.01677
G1 X157.767 Y79.282 E.80161
G1 X157.767 Y79.817 E.01677
G1 X139.183 Y61.233 E.82533
G1 X138.649 Y61.233 E.01677
M73 P2 R110
G1 X157.767 Y80.351 E.84905
G1 X157.767 Y80.885 E.01677
M73 P2 R109
M73 Q2 S111
G1 X138.115 Y61.233 E.87277
G1 X137.581 Y61.233 E.01677
G1 X157.767 Y81.419 E.89649
G1 X157.767 Y81.953 E.01677
G1 X137.047 Y61.233 E.92021
G1 X136.513 Y61.233 E.01677
G1 X157.767 Y82.487 E.94393
G1 X157.767 Y83.021 E.01677
G1 X135.979 Y61.233 E.96765
G1 X135.445 Y61.233 E.01677
G1 X157.767 Y83.555 E.99137
G1 X157.767 Y84.089 E.01677
G1 X134.911 Y61.233 E1.01509
G1 X134.376 Y61.233 E.01677
G1 X157.767 Y84.624 E1.03881
G1 X157.767 Y85.158 E.01677
G1 X133.842 Y61.233 E1.06253
G1 X133.308 Y61.233 E.01677
G1 X157.937 Y85.861 E1.09379
M204 S1000
;WIPE_START
G1 F8640
G1 X155.61 Y83.534 E-.76
;WIPE_END
G1 E-.04 F2100
G1 Z.6 F720
G1 X162.946 Y86.063 F10800
G1 Z.2 F720
G1 E.8 F2100
M204 S800
G1 F1800
G1 X163.267 Y86.385 E.01429
G1 X163.267 Y86.919 E.01677
G1 X162.581 Y86.233 E.03047
G1 X162.047 Y86.233 E.01677
G1 X163.267 Y87.453 E.05419
G1 X163.267 Y87.987 E.01677
G1 X161.513 Y86.233 E.07791
G1 X160.979 Y86.233 E.01677
G1 X163.267 Y88.521 E.10163
G1 X163.267 Y89.055 E.01677
G1 X160.445 Y86.233 E.12535
G1 X159.911 Y86.233 E.01677
G1 X163.267 Y89.589 E.14907
G1 X163.267 Y90.124 E.01677
G1 X159.376 Y86.233 E.17279
G1 X158.842 Y86.233 E.01677
G1 X163.267 Y90.658 E.19651
G1 X163.267 Y91.192 E.01677
G1 X158.139 Y86.063 E.22777
M204 S1000
;WIPE_START
G1 F8640
G1 X160.466 Y88.39 E-.76
;WIPE_END
G1 E-.04 F2100
G1 Z.6 F720
G1 X163.437 Y91.896 F10800
G1 Z.2 F720
G1 E.8 F2100
M204 S800
G1 F1800
G1 X132.774 Y61.233 E1.36177
G1 X132.24 Y61.233 E.01677
G1 X163.267 Y92.26 E1.37796
G1 X163.267 Y92.794 E.01677
G1 X131.706 Y61.233 E1.40168
G1 X131.172 Y61.233 E.01677
G1 X163.267 Y93.328 E1.4254
G1 X163.267 Y93.862 E.01677
G1 X130.638 Y61.233 E1.44912
G1 X130.104 Y61.233 E.01677
G1 X163.267 Y94.396 E1.47284
G1 X163.267 Y94.93 E.01677
G1 X129.57 Y61.233 E1.49656
G1 X129.035 Y61.233 E.01677
G1 X163.267 Y95.465 E1.52028
G1 X163.267 Y95.999 E.01677
G1 X128.501 Y61.233 E1.544
G1 X127.967 Y61.233 E.01677
G1 X163.267 Y96.533 E1.56772
G1 X163.267 Y97.067 E.01677
G1 X127.433 Y61.233 E1.59144
G1 X126.899 Y61.233 E.01677
G1 X163.267 Y97.601 E1.61516
G1 X163.267 Y98.135 E.01677
G1 X126.365 Y61.233 E1.63888
G1 X125.831 Y61.233 E.01677
M73 Q2 S110
G1 X163.267 Y98.669 E1.6626
G1 X163.267 Y99.203 E.01677
G1 X125.297 Y61.233 E1.68632
G1 X124.763 Y61.233 E.01677
G1 X163.267 Y99.737 E1.71004
G1 X163.267 Y100.272 E.01677
G1 X124.228 Y61.233 E1.73376
G1 X123.694 Y61.233 E.01677
G1 X163.267 Y100.806 E1.75748
G1 X163.267 Y101.34 E.01677
